packages/kaspersky-hexa-ui-icons/src/iconsSVGs/24/AlignmentLeft.svg

<svg xmlns="http://www.w3.org/2000/svg" width="24" height="24" fill="none" viewBox="0 0 24 24"><path fill="#000" fill-rule="evenodd" d="M21 4c.5523 0 1 .4477 1 1s-.4477 1-1 1H3c-.5523 0-1-.4477-1-1s.4477-1 1-1zm-6 8c0-.5177-.3933-.9438-.8975-.9951L14 11H3c-.5523 0-1 .4477-1 1s.4477 1 1 1h11l.1025-.0049A1.0003 1.0003 0 0 0 15 12m3.1025 6.0049c.5042.0513.8975.4774.8975.9951s-.3933.9438-.8975.9951L18 20H3c-.5523 0-1-.4477-1-1s.4477-1 1-1h15z"/></svg>

<svg width="24" height="24" viewBox="0 0 24 24" fill="none" xmlns="http://www.w3.org/2000/svg">
<path d="M18.1025 18.0049C18.6067 18.0562 19 18.4823 19 19C19 19.5177 18.6067 19.9438 18.1025 19.9951L18 20H3C2.44772 20 2 19.5523 2 19C2 18.4477 2.44772 18 3 18H18L18.1025 18.0049Z" fill="black"/>
<path d="M14.1025 11.0049C14.6067 11.0562 15 11.4823 15 12C15 12.5177 14.6067 12.9438 14.1025 12.9951L14 13H3C2.44772 13 2 12.5523 2 12C2 11.4477 2.44772 11 3 11H14L14.1025 11.0049Z" fill="black"/>
<path d="M21 4C21.5523 4 22 4.44772 22 5C22 5.55228 21.5523 6 21 6H3C2.44772 6 2 5.55228 2 5C2 4.44772 2.44772 4 3 4H21Z" fill="black"/>
</svg>
